evolvere-2-blue-mono/apps/24/mpv.svg

<?xml version="1.0" encoding="UTF-8" standalone="no"?>
<!-- Created with Inkscape (http://www.inkscape.org/) -->

<svg
   xmlns:dc="http://purl.org/dc/elements/1.1/"
   xmlns:cc="http://creativecommons.org/ns#"
   xmlns:rdf="http://www.w3.org/1999/02/22-rdf-syntax-ns#"
   xmlns:svg="http://www.w3.org/2000/svg"
   xmlns="http://www.w3.org/2000/svg"
   xmlns:sodipodi="http://sodipodi.sourceforge.net/DTD/sodipodi-0.dtd"
   xmlns:inkscape="http://www.inkscape.org/namespaces/inkscape"
   version="1.1"
   width="24"
   height="24"
   id="svg2"
   inkscape:version="0.48.3.1 r9886"
   sodipodi:docname="mpv.svg">
  <sodipodi:namedview
     pagecolor="#ffffff"
     bordercolor="#666666"
     borderopacity="1"
     objecttolerance="10"
     gridtolerance="10"
     guidetolerance="10"
     inkscape:pageopacity="0"
     inkscape:pageshadow="2"
     inkscape:window-width="1920"
     inkscape:window-height="1023"
     id="namedview6"
     showgrid="true"
     inkscape:zoom="29.5"
     inkscape:cx="13.19422"
     inkscape:cy="12.101878"
     inkscape:window-x="-10"
     inkscape:window-y="35"
     inkscape:window-maximized="1"
     inkscape:current-layer="svg2"
     inkscape:snap-global="true">
    <inkscape:grid
       type="xygrid"
       id="grid2982"
       empspacing="5"
       visible="true"
       enabled="true"
       snapvisiblegridlinesonly="true" />
  </sodipodi:namedview>
  <defs
     id="defs4" />
  <metadata
     id="metadata7">
    <rdf:RDF>
      <cc:Work
         rdf:about="">
        <dc:format>image/svg+xml</dc:format>
        <dc:type
           rdf:resource="http://purl.org/dc/dcmitype/StillImage" />
        <dc:title />
      </cc:Work>
    </rdf:RDF>
  </metadata>
  <path
     style="color:#000000;fill:#27303a;fill-opacity:0.753280819999999968;fill-rule:nonzero;stroke:none;stroke-width:1;marker:none;visibility:visible;display:inline;overflow:visible;enable-background:accumulate"
     d="M 12 4 C 7.5737904 4 4 7.5737904 4 12 C 4 16.426209 7.5737904 20 12 20 C 16.426209 20 20 16.426209 20 12 C 20 7.5737904 16.426209 4 12 4 z M 12 5.9375 C 15.348794 5.9375 18.0625 8.6512065 18.0625 12 C 18.0625 15.348794 15.348794 18.0625 12 18.0625 C 8.6512065 18.0625 5.9375 15.348794 5.9375 12 C 5.9375 8.6512065 8.6512065 5.9375 12 5.9375 z M 10 9 L 10 15 L 16 12 L 10 9 z "
     id="path3780" />
  <path
     style="font-size:medium;font-style:normal;font-variant:normal;font-weight:normal;font-stretch:normal;text-indent:0;text-align:start;text-decoration:none;line-height:normal;letter-spacing:normal;word-spacing:normal;text-transform:none;direction:ltr;block-progression:tb;writing-mode:lr-tb;text-anchor:start;baseline-shift:baseline;color:#000000;fill:#f1f3f5;fill-opacity:0.90288714000000003;fill-rule:nonzero;stroke:none;stroke-width:2;marker:none;visibility:visible;display:inline;overflow:visible;enable-background:accumulate;font-family:Sans;-inkscape-font-specification:Sans"
     d="M 12 2.84375 C 6.9434323 2.84375 2.84375 6.9434323 2.84375 12 C 2.84375 17.056567 6.9434323 21.15625 12 21.15625 C 17.056567 21.15625 21.15625 17.056567 21.15625 12 C 21.15625 6.9434323 17.056567 2.84375 12 2.84375 z M 12 4 C 16.426209 4 20 7.5737904 20 12 C 20 16.426209 16.426209 20 12 20 C 7.5737904 20 4 16.426209 4 12 C 4 7.5737904 7.5737904 4 12 4 z M 9 7.15625 L 9 16.84375 L 10.53125 16.0625 L 16.53125 13.0625 L 18.03125 12.3125 C 18.036515 12.208898 18.0625 12.104911 18.0625 12 C 18.0625 11.895089 18.036515 11.791102 18.03125 11.6875 L 16.53125 10.9375 L 10.53125 7.9375 L 9 7.15625 z M 10 9 L 16 12 L 10 15 L 10 9 z "
     id="path3025" />
</svg>

<?xml version="1.0" encoding="UTF-8"?>
<!-- Created with Inkscape (http://www.inkscape.org/) -->
<svg width="24" height="24" version="1.1" xml:space="preserve" xmlns="http://www.w3.org/2000/svg" xmlns:cc="http://creativecommons.org/ns#" xmlns:dc="http://purl.org/dc/elements/1.1/" xmlns:rdf="http://www.w3.org/1999/02/22-rdf-syntax-ns#"><defs><style id="current-color-scheme" type="text/css">.ColorScheme-Text {color:#090d11;}.ColorScheme-Background{color:#ffffff;}</style></defs><metadata><rdf:RDF><cc:Work rdf:about=""><dc:format>image/svg+xml</dc:format><dc:type rdf:resource="http://purl.org/dc/dcmitype/StillImage"/></cc:Work></rdf:RDF></metadata><path id="h" class="ColorScheme-Background" d="m12 2.8438c-5.0566 0-9.1562 4.0997-9.1562 9.1562 0 5.0566 4.0997 9.1562 9.1562 9.1562 5.0566 0 9.1562-4.0997 9.1562-9.1562 0-5.0566-4.0997-9.1562-9.1562-9.1562zm0 1.1562c4.4262 0 8 3.5738 8 8 0 4.4262-3.5738 8-8 8-4.4262 0-8-3.5738-8-8 0-4.4262 3.5738-8 8-8zm-3 3.1562v9.6875l1.5312-0.78125 7.5-3.75c0.0053-0.1036 0.03125-0.20759 0.03125-0.3125s-0.02598-0.2089-0.03125-0.3125l-7.5-3.75zm1 1.8438 6 3-6 3z" style="fill-opacity:.5;fill:currentColor"/><path id="e" class="ColorScheme-Text" d="m12 4c-4.4262 0-8 3.5738-8 8 0 4.4262 3.5738 8 8 8 4.4262 0 8-3.5738 8-8 0-4.4262-3.5738-8-8-8zm0 1.9375c3.3488 0 6.0625 2.7137 6.0625 6.0625 0 3.3488-2.7137 6.0625-6.0625 6.0625-3.3488 0-6.0625-2.7137-6.0625-6.0625 0-3.3488 2.7137-6.0625 6.0625-6.0625zm-2 3.0625v6l6-3z" style="fill-opacity:.75;fill:currentColor"/></svg>
